X: 5
T:Southwind
M:3/4
L:1/8
C:
S:AAB form
R:Key of D
K:D
|:A>G|F3ED2|F3GA2|E4EF|E4A>G|!
|F3ED2|B,3A,B,2|D6|D4:|!
||A2|d4d2|d2c2B2|A4A2|A4G2|F2E2D2|!
|F2G2A2|E4EF|E4A2|{G}{B}d4d2|d2c2B2|!
|A4A2|A4G2|F2E2D2|EFG2C2|D4||
